X: 052
T: Miss Blair's Reel
R: reel
B: Robert Bremner "A Collection of Scots Reels or Country Dances" p.5 #2
S: http://imslp.org/wiki/A_Collection_of_Scots_Reels_or_Country_Dances_(Bremner,_Robert)
Z: 2013 John Chambers <jc:trillian.mit.edu>
M: C|
L: 1/8
K: D
% - - - - - - - - - - - - - - - - - - - - - - - - -
V: 1
|:\
(Tf>ef)d eBdA | (Tf>ef)d B/B/B B2 |\
(Tf>ef)d eBdA | (B/A/B/c/ d)F D/D/D D2 :|
|:\
(D/E/F/G/ A)F BGAF | GdFd E/E/E EF |\
(D/E/F/G/ A)F dFAF | GBAF D/D/D D2 :|
% - - - - - - - - - - - - - - - - - - - - - - - - -
V: 2 clef=bass middle=d
|:\
d2d2 d2d2 | d2d2 B2B2 | d2d2 d2d2 | G2A2 D2D2 :|\
|: d2d2
d2d2 | d2d2 e2e2 |\
d2d2 d2d2 | G2A2 D2D2 :|
% - - - - - - - - - - - - - - - - - - - - - - - - -

%%sep 1 1 500
%%sep 1 1 500
